astro/public/img/fa_horizontal_text_white_orange.svg

<?xml version="1.0" encoding="UTF-8"?>
<svg width="445px" height="110px" viewBox="0 0 445 110" version="1.1" xmlns="http://www.w3.org/2000/svg" xmlns:xlink="http://www.w3.org/1999/xlink">
    <title>fa_horizontal_text_white_orange</title>
    <g id="fa_horizontal_text_white_orange" stroke="none" stroke-width="1" fill="none" fill-rule="evenodd">
        <g id="logo-gray-copy" transform="translate(6, 5)" fill-rule="nonzero">
            <polygon id="Path" fill="#FFFFFF" points="131.23 30.13 160 30.13 160 37.3 139.16 37.3 139.16 49 158.8 49 158.8 56.18 139.16 56.18 139.16 74.68 131.23 74.68"></polygon>
            <path d="M190.21,74.69 L183,74.69 L183,69.84 L182.87,69.84 C182.122881,71.4037249 180.999284,72.7575392 179.6,73.78 C177.838258,74.9817436 175.729278,75.5687431 173.6,75.45 C171.83765,75.4934051 170.087017,75.1521512 168.47,74.45 C167.132984,73.855303 165.95711,72.9502573 165.04,71.81 C164.173921,70.6797044 163.550882,69.3825556 163.21,68 C162.826267,66.5411576 162.634648,65.0384573 162.639891,63.53 L162.639891,44.48 L170.2,44.48 L170.2,59.77 C170.2,60.61 170.2,61.55 170.32,62.57 C170.401152,63.5631064 170.623385,64.5395852 170.98,65.47 C171.324033,66.3541998 171.888608,67.1356538 172.62,67.74 C173.519095,68.3961813 174.619001,68.7180188 175.73,68.65 C176.82408,68.6841141 177.911566,68.4686688 178.91,68.02 C179.742731,67.6224857 180.474428,67.0412314 181.05,66.32 C181.627445,65.5949908 182.04646,64.7569618 182.28,63.86 C182.534307,62.9177889 182.662096,61.945925 182.66,60.97 L182.66,44.48 L190.21,44.48 L190.21,74.69 Z" id="Path" fill="#FFFFFF"></path>
            <path d="M213.56,52.85 C212.250305,50.874598 210.019565,49.7082723 207.65,49.76 C206.602678,49.7624584 205.57217,50.0235202 204.65,50.52 C203.720261,50.9839172 203.163155,51.9637912 203.24,53 C203.201697,53.8472504 203.674401,54.6350903 204.44,55 C205.391633,55.479987 206.399409,55.8394271 207.44,56.07 C208.66,56.36 209.97,56.67 211.37,56.98 C212.742258,57.2849942 214.067406,57.7726757 215.31,58.43 C216.507152,59.0745397 217.535075,59.9928183 218.31,61.11 C219.173263,62.5016624 219.58863,64.1247349 219.5,65.76 C219.556994,67.3627779 219.154507,68.9484346 218.34,70.33 C217.585074,71.5482411 216.558241,72.5750737 215.34,73.33 C214.044594,74.1043966 212.628173,74.6554148 211.15,74.96 C209.619679,75.2980088 208.057205,75.4690091 206.49,75.47 C204.289696,75.4954093 202.100281,75.1575366 200.01,74.47 C197.956094,73.7402429 196.131266,72.481146 194.72,70.82 L199.72,66.1 C200.621548,67.1400909 201.673103,68.03998 202.84,68.77 C204.070125,69.4840673 205.478954,69.8310696 206.9,69.77 C207.468598,69.768854 208.035342,69.7051372 208.59,69.58 C209.168605,69.4651009 209.723279,69.2520251 210.23,68.95 C210.711996,68.6728064 211.130909,68.2981693 211.46,67.85 C211.775672,67.3993308 211.940232,66.8601337 211.93,66.31 C211.988034,65.3719391 211.527381,64.4775042 210.73,63.98 C209.797731,63.4210969 208.786293,63.0064074 207.73,62.75 C206.52,62.44 205.2,62.15 203.8,61.87 C202.434922,61.6151597 201.112138,61.1708659 199.87,60.55 C198.680381,59.9522685 197.651575,59.0777833 196.87,58 C196.006334,56.6529289 195.589885,55.0676228 195.68,53.47 C195.626908,51.9478937 195.971576,50.4382442 196.68,49.09 C197.349412,47.8812225 198.282505,46.8387558 199.41,46.04 C200.596125,45.2216185 201.920924,44.6252895 203.32,44.28 C204.779816,43.9012972 206.281863,43.709851 207.79,43.709851 C209.832154,43.7017049 211.860923,44.0398331 213.79,44.71 C215.715231,45.3698463 217.386345,46.6144416 218.57,48.27 L213.56,52.85 Z" id="Path" fill="#FFFFFF"></path>
            <path d="M222.82,34.22 C222.800597,33.0052399 223.290086,31.8377175 224.17,31 C225.079199,30.0977124 226.319718,29.6094616 227.6,29.65 C228.894219,29.6313076 230.145257,30.1152335 231.09,31 C231.994096,31.8348203 232.508261,33.0094255 232.508261,34.24 C232.508261,35.4705745 231.994096,36.6451797 231.09,37.48 C230.135936,38.3429568 228.885966,38.8049798 227.6,38.77 C226.319718,38.8105384 225.079199,38.3222876 224.17,37.42 C223.297249,36.5856376 222.808602,35.427363 222.82,34.22 Z M223.89,44.48 L231.44,44.48 L231.44,74.69 L223.89,74.69 L223.89,44.48 Z" id="Shape" fill="#FFFFFF"></path>
            <path d="M235.66,59.58 C235.646059,57.3401259 236.102574,55.122281 237,53.07 C238.638382,49.2433251 241.793256,46.2695572 245.71,44.86 C249.858554,43.3403867 254.411446,43.3403867 258.56,44.86 C262.476744,46.2695572 265.631618,49.2433251 267.27,53.07 C268.981404,57.2343582 268.981404,61.9056418 267.27,66.07 C265.631618,69.8966749 262.476744,72.8704428 258.56,74.28 C254.411446,75.7996133 249.858554,75.7996133 245.71,74.28 C241.799073,72.8773045 238.64514,69.915287 237,66.1 C236.101202,64.044636 235.644657,61.8232397 235.66,59.58 L235.66,59.58 Z M243.209963,59.58 C243.20679,60.7399469 243.409955,61.8912157 243.81,62.98 C244.1941,64.0559388 244.792888,65.0425785 245.57,65.88 C247.258882,67.6685213 249.610095,68.6821176 252.07,68.6821176 C254.529905,68.6821176 256.881118,67.6685213 258.57,65.88 C259.347112,65.0425785 259.9459,64.0559388 260.33,62.98 C261.129572,60.7872833 261.129572,58.3827167 260.33,56.19 C259.9459,55.1140612 259.347112,54.1274215 258.57,53.29 C256.881118,51.5014787 254.529905,50.4878824 252.07,50.4878824 C249.610095,50.4878824 247.258882,51.5014787 245.57,53.29 C244.792888,54.1274215 244.1941,55.1140612 243.81,56.19 C243.410711,57.2755213 243.207551,58.4233746 243.209963,59.58 Z" id="Shape" fill="#FFFFFF"></path>
            <path d="M272.54,44.48 L279.72,44.48 L279.72,49.32 L279.84,49.32 C280.597566,47.7628193 281.723419,46.4138556 283.12,45.39 C284.881102,44.1868805 286.990559,43.5997483 289.12,43.72 C290.883031,43.6683828 292.635436,44.009982 294.25,44.72 C295.577224,45.3310148 296.749622,46.2333852 297.68,47.36 C298.571689,48.4698332 299.212995,49.7592658 299.56,51.14 C299.943733,52.5988424 300.135352,54.1015427 300.130109,55.61 L300.130109,74.69 L292.58,74.69 L292.58,59.4 C292.58,58.56 292.58,57.62 292.45,56.59 C292.377355,55.5988422 292.154825,54.6244316 291.79,53.7 C291.441975,52.8100079 290.866054,52.0271694 290.12,51.43 C289.227913,50.7827517 288.140603,50.4615012 287.04,50.52 C285.94592,50.4858859 284.858434,50.7013312 283.86,51.15 C283.028914,51.5501435 282.297761,52.130966 281.72,52.85 C281.144537,53.5725341 280.725665,54.4068736 280.49,55.3 C280.235859,56.2456512 280.108082,57.2207962 280.11,58.2 L280.11,74.69 L272.56,74.69 L272.54,44.48 Z" id="Path" fill="#FFFFFF"></path>
            <path d="M322.46,30.13 L329.32,30.13 L348.52,74.69 L339.45,74.69 L335.3,64.49 L316,64.49 L312,74.69 L303.13,74.69 L322.46,30.13 Z M332.53,57.7 L325.67,39.57 L318.67,57.7 L332.53,57.7 Z" id="Shape" fill="#F58320"></path>
            <path d="M377.28,74.69 L370.1,74.69 L370.1,69.84 L370,69.84 C369.246281,71.3994911 368.123907,72.7518321 366.73,73.78 C364.967621,74.9803736 362.859115,75.5672413 360.73,75.45 C358.96765,75.4934051 357.217017,75.1521512 355.6,74.45 C354.262984,73.855303 353.08711,72.9502573 352.17,71.81 C351.274097,70.6902116 350.629521,69.3908284 350.28,68 C349.896267,66.5411576 349.704648,65.0384573 349.709891,63.53 L349.709891,44.48 L357.26,44.48 L357.26,59.77 C357.26,60.61 357.26,61.55 357.39,62.57 C357.461489,63.5645689 357.684041,64.5424483 358.05,65.47 C358.394033,66.3541998 358.958608,67.1356538 359.69,67.74 C360.589095,68.3961813 361.689001,68.7180188 362.8,68.65 C363.902339,68.6809051 364.997079,68.4585362 366,68 C366.832731,67.6024857 367.564428,67.0212314 368.14,66.3 C368.717445,65.5749908 369.13646,64.7369618 369.37,63.84 C369.624307,62.8977889 369.752096,61.925925 369.75,60.95 L369.75,44.48 L377.3,44.48 L377.28,74.69 Z" id="Path" fill="#F58320"></path>
            <path d="M379.86,50.9 L379.86,44.48 L386.09,44.48 L386.09,35.73 L393.65,35.73 L393.65,44.48 L402,44.48 L402,50.9 L393.7,50.9 L393.7,64.12 C393.635749,65.3687639 393.927021,66.6101391 394.54,67.7 C395.11,68.59 396.23,69.03 397.91,69.03 C398.651594,69.0198423 399.390958,68.9462404 400.12,68.81 C400.793036,68.7090507 401.435202,68.4596992 402,68.08 L402,74.44 C401.074193,74.8550421 400.08878,75.1216434 399.08,75.23 C398.065219,75.3634999 397.043441,75.4369611 396.02,75.45 C394.348503,75.4980855 392.680248,75.2752012 391.08,74.79 C389.914675,74.4127928 388.876393,73.7206053 388.08,72.79 C387.308319,71.8072537 386.789799,70.6500287 386.57,69.42 C386.280712,67.8872596 386.14338,66.3297129 386.16,64.77 L386.16,50.9 L379.86,50.9 Z" id="Path" fill="#F58320"></path>
            <path d="M413,48.69 L413.13,48.69 C413.841915,47.2895598 414.91575,46.1052329 416.24,45.26 C417.95874,44.1729107 419.968074,43.635693 422,43.72 C423.763196,43.6663576 425.516043,44.0080431 427.13,44.72 C428.458847,45.328327 429.631805,46.2311284 430.56,47.36 C431.452095,48.4709673 432.096483,49.7597437 432.45,51.14 C432.833733,52.5988424 433.025352,54.1015427 433.020109,55.61 L433.020109,74.69 L425.46,74.69 L425.46,59.4 C425.46,58.56 425.46,57.62 425.34,56.59 C425.257778,55.6003022 425.035563,54.6272739 424.68,53.7 C424.325499,52.8109096 423.746694,52.0288329 423,51.43 C422.107189,50.7842227 421.020411,50.4631292 419.92,50.52 C418.82592,50.4858859 417.738434,50.7013312 416.74,51.15 C415.907269,51.5475143 415.175572,52.1287686 414.6,52.85 C414.024537,53.5725341 413.605665,54.4068736 413.37,55.3 C413.115859,56.2456512 412.988082,57.2207962 412.99,58.2 L412.99,74.69 L405.44,74.69 L405.44,27.1 L413,27.1 L413,48.69 Z" id="Path" fill="#F58320"></path>
            <path d="M27.75,90.64 C24.1518121,88.5720361 20.8684559,85.9992319 18,83 C17.1680799,84.0434745 16.1511233,84.9248369 15,85.6 C14.3641916,85.9589838 13.6942205,86.2537711 13,86.48 C28.5194199,103.427264 53.6683063,107.450257 73.7,96.19 C74.6472172,95.646126 75.2312917,94.6372542 75.2312917,93.545 C75.2312917,92.4527458 74.6472172,91.443874 73.7,90.9 L73.7,90.9 C72.7807529,90.348546 71.6371133,90.3294853 70.7,90.85 C57.3550266,98.3858463 41.0206455,98.3059809 27.75,90.64 Z" id="Path" fill="#FFFFFF"></path>
            <path d="M27.74,15.68 C31.3393393,13.6040753 35.2192854,12.0581593 39.26,11.09 C38.75791,9.81616965 38.5000878,8.45921075 38.5,7.09 C38.501879,6.35127071 38.5755588,5.61447306 38.72,4.89 C16.2907761,9.87040455 0.248367013,29.6458226 0,52.62 C0.00357688908,53.7114391 0.588222547,54.7183478 1.53433621,55.2625177 C2.48044987,55.8066877 3.64478436,55.8057283 4.59,55.26 L4.59,55.26 C5.51807868,54.7385612 6.100322,53.7643502 6.12,52.7 C6.2835235,37.4079122 14.5015237,23.3362024 27.74,15.68 Z" id="Path" fill="#FFFFFF"></path>
            <path d="M92.65,53.16 C92.6486095,57.3142307 92.0491265,61.4466226 90.87,65.43 C92.2147119,65.627096 93.5104801,66.0748484 94.69,66.75 C95.3229403,67.1121515 95.922021,67.5305039 96.48,68 C103.363914,46.0851213 94.2503865,22.3153838 74.48,10.62 C73.5331142,10.1239424 72.3960041,10.157961 71.480466,10.7097362 C70.5649279,11.2615113 70.0036898,12.2510509 69.9998356,13.32 L69.9998356,13.32 C69.9889018,14.3822662 70.5404173,15.3711905 71.45,15.92 C84.5957533,23.7199312 92.6536109,37.8743942 92.65,53.16 Z" id="Path" fill="#FFFFFF"></path>
            <path d="M49.39,32.5799976 C57.7147418,32.5759549 65.2220251,37.5875455 68.4105692,45.2774434 C71.5991132,52.9673413 69.8408449,61.8208059 63.9557935,67.7087183 C58.0707421,73.5966307 49.2181331,75.3592018 41.5266864,72.1743956 C33.8352397,68.9895895 28.82,61.4847428 28.82,53.16 C28.8310147,41.8024485 38.0324552,32.5965348 49.39,32.5799976 M49.39,26.4699981 C34.64952,26.4699981 22.7,38.41952 22.7,53.16 C22.7,67.90048 34.64952,79.85 49.39,79.85 C64.13048,79.85 76.0800019,67.90048 76.0800019,53.16 C76.082654,46.0805586 73.2715322,39.2903106 68.2656108,34.2843892 C63.2596894,29.2784678 56.4694414,26.467346 49.39,26.4699981 Z" id="Shape" fill="#FFFFFF"></path>
            <circle id="Oval" fill="#F58320" cx="49.38" cy="7.12" r="7.12"></circle>
            <circle id="Oval" fill="#F58320" cx="9.51" cy="76.17" r="7.12"></circle>
            <circle id="Oval" fill="#F58320" cx="89.25" cy="76.17" r="7.12"></circle>
            <path d="M55.2900357,48.29 C55.2939373,45.4185057 53.2299714,42.9611811 50.4009407,42.4691646 C47.57191,41.9771481 44.7994899,43.593343 43.8337167,46.2975577 C42.8679435,49.0017724 43.9893204,52.0085835 46.49,53.42 L44.63,62.85 C44.5691634,63.1477192 44.646999,63.4569489 44.8415328,63.6903894 C45.0360665,63.9238298 45.3261909,64.0561522 45.63,64.0502054 L53.2,64.0502054 C53.5038091,64.0561522 53.7939335,63.9238298 53.9884672,63.6903894 C54.183001,63.4569489 54.2608366,63.1477192 54.2,62.85 L52.33,53.42 C54.1671852,52.3665027 55.2973563,50.4077941 55.2900357,48.29 L55.2900357,48.29 Z" id="Path" fill="#F58320"></path>
        </g>
    </g>
</svg>

<svg xmlns="http://www.w3.org/2000/svg" width="445" height="110"><g fill="none" transform="translate(6 5)"><path fill="#FFF" d="M131.23 30.13H160v7.17h-20.84V49h19.64v7.18h-19.64v18.5h-7.93zm58.98 44.56H183v-4.85h-.13a10.47 10.47 0 0 1-3.27 3.94 9.69 9.69 0 0 1-6 1.67 12.13 12.13 0 0 1-5.13-1 9.2 9.2 0 0 1-3.43-2.64 10.33 10.33 0 0 1-1.83-3.81 17.335 17.335 0 0 1-.57-4.47V44.48h7.56v15.29c0 .84 0 1.78.12 2.8.081.993.303 1.97.66 2.9a5.56 5.56 0 0 0 1.64 2.27 4.78 4.78 0 0 0 3.11.91 7.21 7.21 0 0 0 3.18-.63 6.1 6.1 0 0 0 2.14-1.7 6.63 6.63 0 0 0 1.23-2.46 11 11 0 0 0 .38-2.89V44.48h7.55v30.21Zm23.35-21.84a6.91 6.91 0 0 0-5.91-3.09 6.36 6.36 0 0 0-3 .76 2.56 2.56 0 0 0-1.41 2.48 2.11 2.11 0 0 0 1.2 2c.952.48 1.96.84 3 1.07 1.22.29 2.53.6 3.93.91a15.72 15.72 0 0 1 3.94 1.45 8.63 8.63 0 0 1 3 2.68 8 8 0 0 1 1.19 4.65 8.41 8.41 0 0 1-1.16 4.57 9.28 9.28 0 0 1-3 3 13.46 13.46 0 0 1-4.19 1.63 21.67 21.67 0 0 1-4.66.51 20 20 0 0 1-6.48-1 12.38 12.38 0 0 1-5.29-3.65l5-4.72a13.85 13.85 0 0 0 3.12 2.67 7.45 7.45 0 0 0 4.06 1 7.75 7.75 0 0 0 1.69-.19 5.17 5.17 0 0 0 1.64-.63 4 4 0 0 0 1.23-1.1 2.6 2.6 0 0 0 .47-1.54 2.56 2.56 0 0 0-1.2-2.33 10.78 10.78 0 0 0-3-1.23 76.3 76.3 0 0 0-3.93-.88 14.91 14.91 0 0 1-3.93-1.32 8.32 8.32 0 0 1-3-2.55 7.6 7.6 0 0 1-1.19-4.53 8.76 8.76 0 0 1 1-4.38 9.2 9.2 0 0 1 2.73-3.05 11.91 11.91 0 0 1 3.91-1.76 17.79 17.79 0 0 1 4.47-.57c2.042-.008 4.07.33 6 1a9.77 9.77 0 0 1 4.78 3.56l-5.01 4.58Zm9.26-18.63a4.35 4.35 0 0 1 1.35-3.22 4.66 4.66 0 0 1 3.43-1.35 5 5 0 0 1 3.49 1.35 4.41 4.41 0 0 1 0 6.48 5 5 0 0 1-3.49 1.29 4.66 4.66 0 0 1-3.43-1.35 4.37 4.37 0 0 1-1.35-3.2Zm1.07 10.26h7.55v30.21h-7.55V44.48Zm11.77 15.1a16 16 0 0 1 1.34-6.51 15 15 0 0 1 8.71-8.21 18.68 18.68 0 0 1 12.85 0 15 15 0 0 1 8.71 8.21 17.1 17.1 0 0 1 0 13 15 15 0 0 1-8.71 8.21 18.68 18.68 0 0 1-12.85 0A15 15 0 0 1 237 66.1a16 16 0 0 1-1.34-6.52Zm7.55 0a9.78 9.78 0 0 0 .6 3.4 8.43 8.43 0 0 0 1.76 2.9 8.94 8.94 0 0 0 13 0 8.43 8.43 0 0 0 1.76-2.9 9.91 9.91 0 0 0 0-6.79 8.43 8.43 0 0 0-1.76-2.9 8.94 8.94 0 0 0-13 0 8.43 8.43 0 0 0-1.76 2.9 9.76 9.76 0 0 0-.6 3.39Zm29.33-15.1h7.18v4.84h.12a10.65 10.65 0 0 1 3.28-3.93 9.67 9.67 0 0 1 6-1.67 11.88 11.88 0 0 1 5.13 1 9.72 9.72 0 0 1 3.43 2.64 9.88 9.88 0 0 1 1.88 3.78c.384 1.459.575 2.962.57 4.47v19.08h-7.55V59.4c0-.84 0-1.78-.13-2.81a9.83 9.83 0 0 0-.66-2.89 5.45 5.45 0 0 0-1.67-2.27 4.81 4.81 0 0 0-3.08-.91 7.21 7.21 0 0 0-3.18.63 6.19 6.19 0 0 0-2.14 1.7 6.66 6.66 0 0 0-1.23 2.45 11.09 11.09 0 0 0-.38 2.9v16.49h-7.55l-.02-30.21Z"/><path fill="#F58320" d="M322.46 30.13h6.86l19.2 44.56h-9.07l-4.15-10.2H316l-4 10.2h-8.87l19.33-44.56Zm10.07 27.57-6.86-18.13-7 18.13h13.86Zm44.75 16.99h-7.18v-4.85h-.1a10.66 10.66 0 0 1-3.27 3.94 9.71 9.71 0 0 1-6 1.67 12.13 12.13 0 0 1-5.13-1 9.2 9.2 0 0 1-3.43-2.64 10 10 0 0 1-1.89-3.81 17.335 17.335 0 0 1-.57-4.47V44.48h7.55v15.29c0 .84 0 1.78.13 2.8a9.82 9.82 0 0 0 .66 2.9 5.56 5.56 0 0 0 1.64 2.27 4.78 4.78 0 0 0 3.11.91A7.21 7.21 0 0 0 366 68a6.1 6.1 0 0 0 2.14-1.7 6.63 6.63 0 0 0 1.23-2.46 11 11 0 0 0 .38-2.89V44.48h7.55l-.02 30.21Zm2.58-23.79v-6.42h6.23v-8.75h7.56v8.75H402v6.42h-8.3v13.22a6.61 6.61 0 0 0 .84 3.58c.57.89 1.69 1.33 3.37 1.33a13 13 0 0 0 2.21-.22 4.59 4.59 0 0 0 1.88-.73v6.36a9.66 9.66 0 0 1-2.92.79 26 26 0 0 1-3.06.22 15.49 15.49 0 0 1-4.94-.66 6.64 6.64 0 0 1-3-2 7.63 7.63 0 0 1-1.51-3.37 23.71 23.71 0 0 1-.41-4.65V50.9h-6.3ZM413 48.69h.13a8.8 8.8 0 0 1 3.11-3.43 10 10 0 0 1 5.76-1.54 11.82 11.82 0 0 1 5.13 1 9.63 9.63 0 0 1 3.43 2.64 10 10 0 0 1 1.89 3.78c.384 1.459.575 2.962.57 4.47v19.08h-7.56V59.4c0-.84 0-1.78-.12-2.81a10.5 10.5 0 0 0-.66-2.89 5.54 5.54 0 0 0-1.68-2.27 4.83 4.83 0 0 0-3.08-.91 7.21 7.21 0 0 0-3.18.63 6.1 6.1 0 0 0-2.14 1.7 6.66 6.66 0 0 0-1.23 2.45 11.09 11.09 0 0 0-.38 2.9v16.49h-7.55V27.1H413v21.59Z"/><path fill="#FFF" d="M27.75 90.64A43.45 43.45 0 0 1 18 83a10.87 10.87 0 0 1-3 2.6 11 11 0 0 1-2 .88c15.52 16.947 40.668 20.97 60.7 9.71a3.05 3.05 0 0 0 0-5.29 3 3 0 0 0-3-.05 43.3 43.3 0 0 1-42.95-.21Zm-.01-74.96a43.21 43.21 0 0 1 11.52-4.59 10.91 10.91 0 0 1-.76-4 11.4 11.4 0 0 1 .22-2.2C16.29 9.87.248 29.646 0 52.62a3.06 3.06 0 0 0 4.59 2.64 3 3 0 0 0 1.53-2.56 43.3 43.3 0 0 1 21.62-37.02Zm64.91 37.48a43.28 43.28 0 0 1-1.78 12.27 10.86 10.86 0 0 1 3.82 1.32c.633.362 1.232.78 1.79 1.25 6.884-21.915-2.23-45.685-22-57.38a3.06 3.06 0 0 0-4.48 2.7 3 3 0 0 0 1.45 2.6 43.29 43.29 0 0 1 21.2 37.24ZM49.39 32.58a20.58 20.58 0 1 1-20.57 20.58c.011-11.358 9.212-20.563 20.57-20.58m0-6.11c-14.74 0-26.69 11.95-26.69 26.69 0 14.74 11.95 26.69 26.69 26.69 14.74 0 26.69-11.95 26.69-26.69a26.68 26.68 0 0 0-26.69-26.69Z"/><circle cx="49.38" cy="7.12" r="7.12" fill="#F58320"/><circle cx="9.51" cy="76.17" r="7.12" fill="#F58320"/><circle cx="89.25" cy="76.17" r="7.12" fill="#F58320"/><path fill="#F58320" d="M55.29 48.29a5.9 5.9 0 1 0-8.8 5.13l-1.86 9.43a1 1 0 0 0 1 1.2h7.57a1 1 0 0 0 1-1.2l-1.87-9.43a5.89 5.89 0 0 0 2.96-5.13Z"/></g></svg>
